src/images/icons/people-circle.svg

<?xml version="1.0" encoding="UTF-8"?>
<svg width="76px" height="76px" viewBox="0 0 76 76" version="1.1" xmlns="http://www.w3.org/2000/svg" xmlns:xlink="http://www.w3.org/1999/xlink">
    <!-- Generator: Sketch 51.2 (57519) - http://www.bohemiancoding.com/sketch -->
    <title>Group</title>
    <desc>Created with Sketch.</desc>
    <defs></defs>
    <g id="Page-3" stroke="none" stroke-width="1" fill="none" fill-rule="evenodd">
        <g id="Artboard-31" transform="translate(-22.000000, -18.000000)">
            <g id="Group" transform="translate(22.000000, 18.000000)">
                <path d="M63.2183,63.2183 C61.8363,64.6003 59.4183,64.6003 58.0363,63.2183 C56.6553,61.8363 56.6553,59.4183 58.0363,58.0363 C59.5333,56.5393 61.8363,56.5393 63.2183,58.0363 C64.7153,59.4183 64.7153,61.8363 63.2183,63.2183 M38.0003,73.6973 C35.9273,73.6973 34.3153,72.0853 34.3153,70.0123 C34.3153,67.9393 35.9273,66.3273 38.0003,66.3273 C40.0723,66.3273 41.6853,67.9393 41.6853,70.0123 C41.6853,72.0853 40.0723,73.6973 38.0003,73.6973 M12.7813,63.2183 C11.4003,61.8363 11.4003,59.4183 12.7813,58.0363 C14.2793,56.5393 16.5823,56.5393 17.9643,58.0363 C19.3453,59.4183 19.3453,61.8363 17.9643,63.2183 C16.5823,64.6003 14.1633,64.6003 12.7813,63.2183 M2.3033,38.0003 C2.3033,35.9273 3.9153,34.3153 5.9883,34.3153 C8.0603,34.3153 9.6733,35.9273 9.6733,38.0003 C9.6733,40.0723 8.0603,41.6853 5.9883,41.6853 C3.9153,41.6853 2.3033,40.0723 2.3033,38.0003 M12.7813,12.7813 C14.2793,11.2843 16.5823,11.2843 17.9643,12.7813 C19.3453,14.1633 19.3453,16.5823 17.9643,17.9643 C16.5823,19.3453 14.1633,19.3453 12.7813,17.9643 C11.2843,16.5823 11.2843,14.1633 12.7813,12.7813 M38.0003,2.3033 C40.0723,2.3033 41.6853,3.9153 41.6853,5.9883 C41.6853,8.0603 40.0723,9.6733 38.0003,9.6733 C35.9273,9.6733 34.3153,8.0603 34.3153,5.9883 C34.3153,3.9153 35.9273,2.3033 38.0003,2.3033 M63.2183,12.7813 C64.6003,14.1633 64.6003,16.5823 63.2183,17.9643 C61.8363,19.3453 59.4183,19.3453 58.0363,17.9643 C56.6553,16.5823 56.6553,14.1633 58.0363,12.7813 C59.4183,11.2843 61.8363,11.2843 63.2183,12.7813 M73.6973,38.0003 C73.6973,40.0723 72.0853,41.6853 70.0123,41.6853 C67.9393,41.6853 66.3273,40.0723 66.3273,38.0003 C66.3273,35.9273 67.9393,34.3153 70.0123,34.3153 C72.0853,34.3153 73.6973,35.9273 73.6973,38.0003 M56.4243,56.4243 C54.4673,58.3823 54.2363,61.2603 55.3873,63.4483 C51.9333,65.8663 47.9033,67.4793 43.7583,68.2843 C43.0673,65.8663 40.7633,64.0243 38.0003,64.0243 C35.2363,64.0243 33.0483,65.8663 32.2423,68.2843 C28.0973,67.4793 24.0673,65.8663 20.6123,63.4483 C21.8793,61.1453 21.5333,58.2663 19.5753,56.4243 C17.8483,54.6973 14.9693,54.1213 12.5513,55.3873 C10.1333,51.9333 8.5213,47.9033 7.7153,43.7583 C10.1333,42.9513 11.9753,40.7633 11.9753,38.1153 C11.9753,35.4673 10.2483,33.1633 7.7153,32.4723 C8.5213,28.0973 10.2483,24.1813 12.6663,20.6123 C15.0853,21.8793 17.8483,21.3033 19.6913,19.5753 C21.5333,17.7333 21.8793,14.8543 20.7273,12.6663 C24.1813,10.2483 28.2123,8.6363 32.3573,7.8303 C33.1633,10.2483 35.3513,11.9753 38.0003,11.9753 C40.6483,11.9753 42.9513,10.2483 43.6423,7.8303 C47.9033,8.6363 51.8183,10.2483 55.3873,12.6663 C54.2363,14.9693 54.5823,17.7333 56.4243,19.5753 C58.1513,21.3033 60.9153,21.8793 63.4483,20.6123 C65.8663,24.0673 67.4793,28.0973 68.2843,32.2423 C65.8663,33.0483 64.0243,35.2363 64.0243,37.8853 C64.0243,40.5333 65.8663,42.8363 68.2843,43.5273 C67.4793,47.6733 65.8663,51.7033 63.4483,55.1573 C60.9153,54.0063 58.1513,54.5823 56.4243,56.4243 M76.0003,38.0003 C76.0003,34.8913 73.5823,32.3573 70.5883,32.0123 C69.7813,27.4063 67.9393,23.0303 65.1763,19.1153 C67.1333,16.8123 67.0183,13.2423 64.8303,11.0543 C62.6423,8.8663 59.1883,8.6363 56.7693,10.7093 C52.9693,8.1763 48.4793,6.3333 43.9883,5.5273 C43.6423,2.4183 41.1093,0.0003 38.0003,0.0003 C34.8913,0.0003 32.3573,2.4183 32.0123,5.5273 C27.4063,6.3333 23.0303,8.1763 19.2303,10.8243 C16.6973,8.7513 13.2423,8.9823 11.1703,11.1703 C8.9823,13.3573 8.8663,16.9273 10.8243,19.2303 C8.1763,23.0303 6.3333,27.4063 5.4123,32.0123 C2.4183,32.3573 0.0003,34.8913 0.0003,38.0003 C0.0003,41.1093 2.4183,43.6423 5.4123,43.9883 C6.2183,48.5933 8.0603,53.0853 10.7093,56.8853 C8.7513,59.1883 8.8663,62.7583 11.0543,64.9453 C13.1273,67.0183 16.5823,67.3643 19.1153,65.2913 C23.0303,67.9393 27.4063,69.7813 32.0123,70.7033 C32.3573,73.6973 34.8913,76.0003 38.0003,76.0003 C41.1093,76.0003 43.6423,73.5823 43.8723,70.5883 C48.4793,69.7813 52.9693,67.9393 56.7693,65.1763 C59.3033,67.2483 62.6423,66.9033 64.8303,64.8303 C67.0183,62.6423 67.1333,59.1883 65.1763,56.7693 C67.8243,52.8543 69.6663,48.4793 70.4723,43.8723 C73.5823,43.6423 76.0003,41.1093 76.0003,38.0003" id="Fill-1203" fill="#8C8C8C"></path>
                <path d="M55.5054,42.6519 L44.5524,42.6519 C43.5094,41.9559 42.2924,41.5219 40.9884,41.5219 L40.9014,41.5219 C42.3794,40.5659 43.4224,38.9139 43.4224,37.0019 L43.4224,36.8279 C43.9444,36.5669 44.5524,36.4799 45.0744,36.4799 L51.1594,36.4799 C53.5924,36.4799 55.5054,38.4789 55.5054,40.8259 L55.5054,42.6519 Z M45.3354,49.4319 L30.5574,49.4319 L30.5574,47.6069 C30.5574,45.1729 32.5574,43.2599 34.9034,43.2599 L40.9884,43.2599 C43.4224,43.2599 45.3354,45.2589 45.3354,47.6069 L45.3354,49.4319 Z M20.3874,40.8259 C20.3874,38.3919 22.3864,36.4799 24.7334,36.4799 L30.8184,36.4799 C31.4264,36.4799 32.0354,36.6539 32.6444,36.9149 L32.6444,37.0019 C32.6444,38.9139 33.6874,40.5659 35.1644,41.5219 L34.9034,41.5219 C33.6004,41.5219 32.3834,41.9559 31.3394,42.6519 L20.3874,42.6519 L20.3874,40.8259 Z M38.0334,33.2639 C40.0324,33.2639 41.6844,34.9149 41.6844,36.9149 C41.6844,38.9139 40.0324,40.5659 38.0334,40.5659 C36.0344,40.5659 34.3824,38.9139 34.3824,36.9149 C34.3824,34.9149 36.0344,33.2639 38.0334,33.2639 Z M27.8624,26.4839 C29.8624,26.4839 31.5134,28.1349 31.5134,30.1339 C31.5134,32.1339 29.8624,33.7849 27.8624,33.7849 C25.8634,33.7849 24.2124,32.1339 24.2124,30.1339 C24.2124,28.1349 25.8634,26.4839 27.8624,26.4839 Z M48.1164,26.4839 C50.1154,26.4839 51.7674,28.1349 51.7674,30.1339 C51.7674,32.1339 50.1154,33.7849 48.1164,33.7849 C46.1174,33.7849 44.4654,32.1339 44.4654,30.1339 C44.5524,28.1349 46.1174,26.4839 48.1164,26.4839 Z M51.0724,34.6539 L50.9854,34.6539 C52.4634,33.6979 53.5054,32.0469 53.5054,30.1339 C53.5054,27.1789 51.0724,24.7449 48.1164,24.7449 C45.1614,24.7449 42.7274,27.1789 42.7274,30.1339 C42.7274,32.0469 43.7704,33.6979 45.2484,34.6539 L44.9874,34.6539 C44.2924,34.6539 43.5964,34.7409 42.9874,35.0019 C42.2054,33.0029 40.2934,31.5259 37.9464,31.5259 C35.5994,31.5259 33.6874,33.0029 32.9044,35.0019 C32.2094,34.7409 31.5134,34.5679 30.7314,34.5679 L30.6444,34.5679 C32.1224,33.6109 33.1654,31.9599 33.1654,30.0479 C33.1654,27.0919 30.7314,24.6579 27.7764,24.6579 C24.8204,24.6579 22.3864,27.0919 22.3864,30.0479 C22.3864,31.9599 23.4294,33.6109 24.9074,34.5679 L24.6464,34.5679 C21.2564,34.5679 18.5624,37.3489 18.5624,40.6519 L18.5624,43.3469 C18.5624,43.8689 18.9094,44.2159 19.4314,44.2159 L29.6014,44.2159 C28.9934,45.1729 28.6454,46.3029 28.6454,47.4329 L28.6454,50.1279 C28.6454,50.6489 28.9934,50.9969 29.5144,50.9969 L46.0304,50.9969 C46.5514,50.9969 46.8994,50.6489 46.8994,50.1279 L46.8994,47.4329 C46.8994,46.2159 46.5514,45.1729 45.9434,44.2159 L56.1134,44.2159 C56.6354,44.2159 56.9834,43.8689 56.9834,43.3469 L56.9834,40.6519 C57.2434,37.4359 54.4624,34.6539 51.0724,34.6539 Z" id="Fill-1205" fill="#7490B1"></path>
            </g>
        </g>
    </g>
</svg>

<svg height="76" viewBox="0 0 76 76" width="76" xmlns="http://www.w3.org/2000/svg"><g fill="none" fill-rule="evenodd"><path d="m63.2183 63.2183c-1.382 1.382-3.8 1.382-5.182 0-1.381-1.382-1.381-3.8 0-5.182 1.497-1.497 3.8-1.497 5.182 0 1.497 1.382 1.497 3.8 0 5.182m-25.218 10.479c-2.073 0-3.685-1.612-3.685-3.685s1.612-3.685 3.685-3.685c2.072 0 3.685 1.612 3.685 3.685s-1.613 3.685-3.685 3.685m-25.219-10.479c-1.381-1.382-1.381-3.8 0-5.182 1.498-1.497 3.801-1.497 5.183 0 1.381 1.382 1.381 3.8 0 5.182-1.382 1.382-3.801 1.382-5.183 0m-10.478-25.218c0-2.073 1.612-3.685 3.685-3.685 2.072 0 3.685 1.612 3.685 3.685 0 2.072-1.613 3.685-3.685 3.685-2.073 0-3.685-1.613-3.685-3.685m10.478-25.219c1.498-1.497 3.801-1.497 5.183 0 1.381 1.382 1.381 3.801 0 5.183-1.382 1.381-3.801 1.381-5.183 0-1.497-1.382-1.497-3.801 0-5.183m25.219-10.478c2.072 0 3.685 1.612 3.685 3.685 0 2.072-1.613 3.685-3.685 3.685-2.073 0-3.685-1.613-3.685-3.685 0-2.073 1.612-3.685 3.685-3.685m25.218 10.478c1.382 1.382 1.382 3.801 0 5.183-1.382 1.381-3.8 1.381-5.182 0-1.381-1.382-1.381-3.801 0-5.183 1.382-1.497 3.8-1.497 5.182 0m10.479 25.219c0 2.072-1.612 3.685-3.685 3.685s-3.685-1.613-3.685-3.685c0-2.073 1.612-3.685 3.685-3.685s3.685 1.612 3.685 3.685m-17.273 18.424c-1.957 1.958-2.188 4.836-1.037 7.024-3.454 2.418-7.484 4.031-11.629 4.836-.691-2.418-2.995-4.26-5.758-4.26-2.764 0-4.952 1.842-5.758 4.26-4.145-.805-8.175-2.418-11.63-4.836 1.267-2.303.921-5.182-1.037-7.024-1.727-1.727-4.606-2.303-7.024-1.037-2.418-3.454-4.03-7.484-4.836-11.629 2.418-.807 4.26-2.995 4.26-5.643s-1.727-4.952-4.26-5.643c.806-4.375 2.533-8.291 4.951-11.86 2.419 1.267 5.182.691 7.025-1.037 1.842-1.842 2.188-4.721 1.036-6.909 3.454-2.418 7.485-4.03 11.63-4.836.806 2.418 2.994 4.145 5.643 4.145 2.648 0 4.951-1.727 5.642-4.145 4.261.806 8.176 2.418 11.745 4.836-1.151 2.303-.805 5.067 1.037 6.909 1.727 1.728 4.491 2.304 7.024 1.037 2.418 3.455 4.031 7.485 4.836 11.63-2.418.806-4.26 2.994-4.26 5.643 0 2.648 1.842 4.951 4.26 5.642-.805 4.146-2.418 8.176-4.836 11.63-2.533-1.151-5.297-.575-7.024 1.267m19.576-18.424c0-3.109-2.418-5.643-5.412-5.988-.807-4.606-2.649-8.982-5.412-12.897 1.957-2.303 1.842-5.873-.346-8.061s-5.642-2.418-8.061-.345c-3.8-2.533-8.29-4.376-12.781-5.182-.346-3.109-2.879-5.527-5.988-5.527s-5.643 2.418-5.988 5.527c-4.606.806-8.982 2.649-12.782 5.297-2.533-2.073-5.988-1.842-8.06.346-2.188 2.187-2.304 5.757-.346 8.06-2.648 3.8-4.491 8.176-5.412 12.782-2.994.345-5.412 2.879-5.412 5.988s2.418 5.642 5.412 5.988c.806 4.605 2.648 9.097 5.297 12.897-1.958 2.303-1.843 5.873.345 8.06 2.073 2.073 5.528 2.419 8.061.346 3.915 2.648 8.291 4.49 12.897 5.412.345 2.994 2.879 5.297 5.988 5.297s5.642-2.418 5.872-5.412c4.607-.807 9.097-2.649 12.897-5.412 2.534 2.072 5.873 1.727 8.061-.346 2.188-2.188 2.303-5.642.346-8.061 2.648-3.915 4.49-8.29 5.296-12.897 3.11-.23 5.528-2.763 5.528-5.872" fill="#8c8c8c"/><path d="m55.5054 42.6519h-10.953c-1.043-.696-2.26-1.13-3.564-1.13h-.087c1.478-.956 2.521-2.608 2.521-4.52v-.174c.522-.261 1.13-.348 1.652-.348h6.085c2.433 0 4.346 1.999 4.346 4.346zm-10.17 6.78h-14.778v-1.825c0-2.434 2-4.347 4.346-4.347h6.085c2.434 0 4.347 1.999 4.347 4.347zm-24.948-8.606c0-2.434 1.999-4.346 4.346-4.346h6.085c.608 0 1.217.174 1.826.435v.087c0 1.912 1.043 3.564 2.52 4.52h-.261c-1.303 0-2.52.434-3.564 1.13h-10.952zm17.646-7.562c1.999 0 3.651 1.651 3.651 3.651 0 1.999-1.652 3.651-3.651 3.651s-3.651-1.652-3.651-3.651c0-2 1.652-3.651 3.651-3.651zm-10.171-6.78c2 0 3.651 1.651 3.651 3.65 0 2-1.651 3.651-3.651 3.651-1.999 0-3.65-1.651-3.65-3.651 0-1.999 1.651-3.65 3.65-3.65zm20.254 0c1.999 0 3.651 1.651 3.651 3.65 0 2-1.652 3.651-3.651 3.651s-3.651-1.651-3.651-3.651c.087-1.999 1.652-3.65 3.651-3.65zm2.956 8.17h-.087c1.478-.956 2.52-2.607 2.52-4.52 0-2.955-2.433-5.389-5.389-5.389-2.955 0-5.389 2.434-5.389 5.389 0 1.913 1.043 3.564 2.521 4.52h-.261c-.695 0-1.391.087-2 .348-.782-1.999-2.694-3.476-5.041-3.476s-4.259 1.477-5.042 3.476c-.695-.261-1.391-.434-2.173-.434h-.087c1.478-.957 2.521-2.608 2.521-4.52 0-2.956-2.434-5.39-5.389-5.39-2.956 0-5.39 2.434-5.39 5.39 0 1.912 1.043 3.563 2.521 4.52h-.261c-3.39 0-6.084 2.781-6.084 6.084v2.695c0 .522.347.869.869.869h10.17c-.608.957-.956 2.087-.956 3.217v2.695c0 .521.348.869.869.869h16.516c.521 0 .869-.348.869-.869v-2.695c0-1.217-.348-2.26-.956-3.217h10.17c.522 0 .87-.347.87-.869v-2.695c.26-3.216-2.521-5.998-5.911-5.998z" fill="#7490b1"/></g></svg>
